dist/assets/images/logo.svg

<svg width="91" height="36" viewBox="0 0 91 36" fill="none" xmlns="http://www.w3.org/2000/svg">
<g clip-path="url(#clip0_697_16727)">
<path d="M39.6668 9.14107H39.6316L36.7844 0.154297H33.8887L38.0405 12.9315H41.205L45.4538 0.154297H42.5537L39.6668 9.14107Z" fill="#EDC677"/>
<path d="M61.6821 8.93394H61.6468L58.7952 0.559795L58.6586 0.163125H54.6919V2.03188C55.2675 2.07955 55.8189 2.28495 56.2854 2.62551C56.7519 2.96606 57.1156 3.42861 57.3364 3.96234V3.98879C57.3718 4.07825 57.4027 4.16945 57.4289 4.26205L60.4612 12.9315H62.6297L65.759 3.8786H65.7942V12.9315H68.4387V0.149902H64.472L61.6821 8.93394Z" fill="#EDC677"/>
<path d="M69.9419 0.154297V2.51228H73.772V12.9315H76.5795V2.51228H80.4184V0.154297H69.9419Z" fill="#EDC677"/>
<path d="M54.7007 2.86035H54.5288V4.13851H54.7007C55.4892 4.19745 56.2262 4.55225 56.764 5.13178C57.3019 5.71131 57.6008 6.47273 57.6008 7.26339V5.98523C57.6008 5.19458 57.3019 4.43315 56.764 3.85362C56.2262 3.27409 55.4892 2.91929 54.7007 2.86035Z" fill="#EDC677"/>
<path d="M54.7007 5.06419H49.3544V0.154297H46.5381V12.9359H49.3544V7.41776H53.731C53.9426 7.41776 54.1455 7.50181 54.2951 7.65142C54.4447 7.80103 54.5288 8.00394 54.5288 8.21551V12.9315H57.3363V7.77917C57.3155 7.07919 57.0335 6.41234 56.5457 5.90988C56.0579 5.40741 55.3997 5.10572 54.7007 5.06419Z" fill="#EDC677"/>
<path d="M53.9297 19.3179H50.5889V34.5544H61.3342V31.738H53.9297V19.3179Z" fill="#0AA075"/>
<path d="M48.323 27.0045C48.3352 25.926 48.1654 24.8531 47.8205 23.8311C47.5067 22.8906 47.0094 22.0217 46.3573 21.2748C45.7093 20.5433 44.909 19.9626 44.0125 19.5735C41.9948 18.745 39.7319 18.745 37.7143 19.5735C36.8138 19.9623 36.0091 20.5429 35.3563 21.2748C34.7028 22.0207 34.2053 22.8899 33.893 23.8311C33.5502 24.8536 33.3804 25.9261 33.3906 27.0045C33.3827 28.0539 33.5526 29.097 33.893 30.0897C34.2115 31.0162 34.7087 31.8712 35.3563 32.6063C36.0107 33.3304 36.8114 33.9073 37.7055 34.2988C38.6982 34.7343 39.7728 34.9522 40.8568 34.9379C41.5291 34.9413 42.1993 34.8644 42.8533 34.7087C43.4418 34.5739 44.0074 34.3541 44.5326 34.0564L46.6834 36.0177L48.2304 34.3825L46.3396 32.6504C46.9937 31.9003 47.4965 31.0307 47.8205 30.0897C48.1652 29.0981 48.3352 28.0542 48.323 27.0045ZM44.7353 29.0539C44.5919 29.5698 44.364 30.0582 44.061 30.4996L42.3377 28.9173L40.7686 30.5833L42.201 31.8835C42.1304 31.9456 42.0457 31.9895 41.9542 32.0113C41.8457 32.039 41.7352 32.0581 41.6237 32.0686L41.2446 32.0907H40.8568C40.1918 32.1114 39.5328 31.9596 38.9439 31.6499C38.4411 31.3683 38.0097 30.9747 37.6834 30.4996C37.348 30.004 37.1061 29.4514 36.9694 28.8688C36.8124 28.2596 36.7295 27.6336 36.7226 27.0045C36.7226 26.3501 36.798 25.6979 36.9474 25.0608C37.0876 24.4606 37.3371 23.8914 37.6834 23.3816C38.0147 22.897 38.4537 22.4958 38.966 22.2092C39.5603 21.919 40.213 21.7682 40.8744 21.7682C41.5358 21.7682 42.1885 21.919 42.7828 22.2092C43.2939 22.4958 43.7314 22.8971 44.061 23.3816C44.4 23.8901 44.6434 24.4561 44.7794 25.052C44.9252 25.6896 44.9991 26.3416 44.9998 26.9957C45.0136 27.691 44.9245 28.3846 44.7353 29.0539Z" fill="#0AA075"/>
<path d="M89.4049 27.6921C88.9023 26.9838 88.1627 26.4789 87.3201 26.2685C87.9311 25.9907 88.4573 25.5558 88.8451 25.008C89.2117 24.4373 89.3961 23.7687 89.374 23.0907C89.3918 22.4758 89.2729 21.8647 89.0258 21.3013C88.8062 20.8337 88.4653 20.4334 88.0385 20.1422C87.5756 19.8328 87.0557 19.6185 86.5092 19.5119C85.8567 19.3784 85.1918 19.3148 84.5258 19.3224H77.3813V34.5545H84.7418C85.4157 34.5578 86.087 34.4718 86.7383 34.2989C87.3528 34.1395 87.9336 33.8707 88.4528 33.5055C88.951 33.1434 89.3608 32.6733 89.6517 32.1304C89.986 31.4292 90.1385 30.6553 90.0954 29.8797C90.0523 29.1041 89.8148 28.3519 89.4049 27.6921ZM80.7266 21.9228H83.8515C84.1392 21.9229 84.4265 21.945 84.7109 21.9889C84.9691 22.0281 85.2175 22.1164 85.4426 22.2489C85.6565 22.3811 85.8326 22.5663 85.9538 22.7866C86.0908 23.0596 86.1561 23.363 86.1433 23.6681C86.1519 23.9508 86.0993 24.2319 85.9891 24.4923C85.8887 24.7125 85.7377 24.9058 85.5483 25.0565C85.3569 25.2073 85.1363 25.3169 84.9004 25.3782C84.6344 25.4486 84.3603 25.4841 84.0851 25.484H80.7134L80.7266 21.9228ZM86.562 30.9272C86.4384 31.173 86.2532 31.3826 86.0243 31.5354C85.7858 31.6909 85.5194 31.7986 85.2398 31.8527C84.93 31.9203 84.6137 31.9528 84.2966 31.9497H80.7266V27.767H84.3583C84.6855 27.7663 85.0114 27.8077 85.328 27.8904C85.6064 27.9606 85.8664 28.0899 86.0905 28.2695C86.3071 28.4519 86.4752 28.6851 86.5797 28.9482C86.7063 29.2661 86.7663 29.6067 86.756 29.9487C86.7647 30.2852 86.6984 30.6194 86.562 30.9272Z" fill="#0AA075"/>
<path d="M75.6143 19.3179H71.9605L68.8753 24.1837L65.8959 19.3179H62.0305L66.9228 26.5725L61.6074 34.5544H65.367L68.7519 29.2787L72.0619 34.5544H76.0418L70.7441 26.5902L75.6143 19.3179Z" fill="#0AA075"/>
<path d="M0 34.3164H24.2674V0H0.0264446L0 34.3164ZM2.80313 2.80313H21.4687V31.5176H2.80313V2.80313Z" fill="#0AA075"/>
<path d="M17.63 9.5421C17.6108 9.5035 17.5837 9.46935 17.5504 9.44187C17.5172 9.41439 17.4786 9.39418 17.437 9.38255C17.3955 9.37093 17.352 9.36813 17.3093 9.37436C17.2666 9.38058 17.2257 9.39569 17.1893 9.41869L16.4841 9.81096L16.3783 9.72721C16.1401 9.53731 15.872 9.38836 15.585 9.28647V8.49313C15.585 8.40856 15.5517 8.32738 15.4923 8.26717C15.4329 8.20695 15.3522 8.17255 15.2676 8.17139H13.9895C13.9045 8.17136 13.8228 8.2045 13.7619 8.26378C13.701 8.32305 13.6656 8.40376 13.6633 8.48872V9.29528C13.3298 9.40485 13.0202 9.57686 12.751 9.80214L12.0634 9.37462C11.991 9.33402 11.9057 9.32297 11.8254 9.34377L11.7284 9.38343L11.6271 9.4848L10.9748 10.5734C10.9469 10.6218 10.9318 10.6764 10.9307 10.7321V10.8203C10.9416 10.8609 10.9604 10.899 10.9861 10.9323C11.0119 10.9656 11.044 10.9934 11.0805 11.0142L11.7681 11.4197C11.7372 11.5647 11.7195 11.7122 11.7152 11.8604V11.9265C11.7114 12.1055 11.7277 12.2844 11.7637 12.4598L11.0673 12.8521C11.0302 12.8717 10.9974 12.8986 10.9709 12.9312C10.9444 12.9637 10.9247 13.0013 10.9131 13.0416V13.1077C10.9082 13.172 10.922 13.2362 10.9527 13.2928L11.5786 14.4123C11.5985 14.4488 11.6255 14.4808 11.6581 14.5066C11.6906 14.5323 11.7281 14.5512 11.7681 14.5622C11.8493 14.5846 11.936 14.5751 12.0105 14.5357L12.7157 14.1435L12.8215 14.2272C13.0607 14.4155 13.3286 14.5643 13.6148 14.668V15.4701C13.6148 15.5551 13.6479 15.6368 13.7072 15.6977C13.7665 15.7586 13.8472 15.794 13.9322 15.7963H15.2059C15.2905 15.7975 15.3721 15.7653 15.4332 15.7067C15.4942 15.6481 15.5298 15.5679 15.5321 15.4833V14.6636C15.865 14.5506 16.1743 14.3773 16.4444 14.1523L17.1364 14.5622C17.1722 14.5843 17.2122 14.5988 17.2539 14.6049C17.2956 14.611 17.3381 14.6084 17.3788 14.5974L17.4757 14.5534L17.5771 14.452L18.2294 13.3501C18.2573 13.3018 18.2724 13.2472 18.2735 13.1915V13.1033C18.2517 13.02 18.1978 12.9487 18.1236 12.905L17.4096 12.5392C17.4405 12.3941 17.4582 12.2466 17.4625 12.0984V12.0191C17.4625 11.8415 17.4448 11.6643 17.4096 11.4902L18.106 11.1023C18.18 11.0594 18.2351 10.9902 18.2603 10.9084V10.8423C18.265 10.7795 18.2512 10.7166 18.2206 10.6616L17.63 9.5421ZM14.5845 13.2576C14.2549 13.2532 13.9396 13.1222 13.7041 12.8916C13.4685 12.661 13.3308 12.3485 13.3195 12.0191V11.953C13.3149 11.614 13.445 11.287 13.6814 11.044C13.9178 10.801 14.2411 10.6619 14.5801 10.6572C14.919 10.6525 15.246 10.7827 15.489 11.0191C15.732 11.2555 15.8712 11.5787 15.8758 11.9177V11.9794C15.8753 12.1478 15.8415 12.3145 15.7765 12.4699C15.7115 12.6253 15.6166 12.7664 15.4971 12.885C15.3776 13.0037 15.2359 13.0977 15.08 13.1616C14.9242 13.2256 14.7573 13.2582 14.5889 13.2576H14.5845Z" fill="#0AA075"/>
<path d="M11.878 23.5708H7.33834C7.16215 23.582 6.99678 23.6596 6.87568 23.7881C6.75459 23.9166 6.6868 24.0862 6.68604 24.2628V25.8054C6.68603 25.9928 6.76019 26.1726 6.89231 26.3056C7.02444 26.4385 7.20379 26.5138 7.39123 26.515H11.8251C12.0125 26.5138 12.1919 26.4385 12.324 26.3056C12.4562 26.1726 12.5303 25.9928 12.5303 25.8054V24.2628C12.5295 24.0862 12.4618 23.9166 12.3407 23.7881C12.2196 23.6596 12.0542 23.582 11.878 23.5708Z" fill="#0AA075"/>
<path d="M10.4146 14.0423C10.3969 14.0098 10.367 13.9855 10.3316 13.9748C10.2961 13.9641 10.2579 13.9677 10.2251 13.985C10.2001 13.9974 10.1796 14.0171 10.1662 14.0416C10.1528 14.066 10.1472 14.0939 10.1501 14.1216V18.1368C10.3883 18.2668 10.5759 18.473 10.683 18.7223C10.7901 18.9716 10.8104 19.2497 10.7407 19.5119C10.6901 19.7047 10.5918 19.8818 10.455 20.0267C10.3181 20.1717 10.147 20.2799 9.95739 20.3415C9.76778 20.4031 9.56573 20.4161 9.3698 20.3792C9.17387 20.3424 8.99033 20.2569 8.83605 20.1306C8.68177 20.0044 8.56168 19.8414 8.48682 19.6566C8.41196 19.4718 8.38471 19.2712 8.4076 19.0731C8.43048 18.8751 8.50275 18.686 8.61778 18.5231C8.73281 18.3603 8.8869 18.229 9.06591 18.1412V14.1216C9.06598 14.0833 9.05141 14.0465 9.02518 14.0186C8.99896 13.9908 8.96307 13.974 8.92487 13.9718C8.89933 13.9716 8.87417 13.9781 8.8518 13.9904C8.82943 14.0027 8.81058 14.0206 8.79706 14.0423L5.71185 18.7935C5.66432 18.8711 5.63916 18.9603 5.63916 19.0513C5.63916 19.1423 5.66432 19.2316 5.71185 19.3092L6.97678 22.5178C7.01867 22.5986 7.0819 22.6664 7.1596 22.7138C7.2373 22.7612 7.32651 22.7864 7.41753 22.7866H11.825C11.9159 22.7859 12.0049 22.7605 12.0825 22.7132C12.1601 22.6658 12.2235 22.5983 12.2657 22.5178L13.5307 19.3092C13.5782 19.2316 13.6033 19.1423 13.6033 19.0513C13.6033 18.9603 13.5782 18.8711 13.5307 18.7935L10.4146 14.0423Z" fill="#0AA075"/>
</g>
<defs>
<clipPath id="clip0_697_16727">
<rect width="90.1014" height="36" fill="white"/>
</clipPath>
</defs>
</svg>

<svg width="91" height="36" fill="none" xmlns="http://www.w3.org/2000/svg"><g clip-path="url(#clip0_697_16727)"><path d="M39.667 9.141h-.035L36.784.154H33.89l4.151 12.777h3.165L45.454.155h-2.9l-2.887 8.987zm22.015-.207h-.035L58.795.56 58.66.163h-3.967v1.869a3.143 3.143 0 012.644 1.93v.027c.036.09.067.18.093.273l3.032 8.67h2.169l3.129-9.053h.035v9.053h2.645V.15h-3.967l-2.79 8.784zm8.26-8.78v2.358h3.83v10.42h2.807V2.511h3.84V.154H69.941z" fill="#EDC677"/><path d="M54.7 2.86h-.171v1.28h.172a3.133 3.133 0 012.9 3.124V5.985a3.133 3.133 0 00-2.9-3.125z" fill="#EDC677"/><path d="M54.7 5.064h-5.346V.154h-2.816v12.782h2.816V7.418h4.377a.798.798 0 01.798.798v4.716h2.807V7.779a2.803 2.803 0 00-2.635-2.715z" fill="#EDC677"/><path d="M53.93 19.318h-3.341v15.236h10.745v-2.816H53.93v-12.42zm-5.607 7.687a9.585 9.585 0 00-.502-3.174 7.492 7.492 0 00-1.464-2.556 6.692 6.692 0 00-2.344-1.701 8.29 8.29 0 00-6.299 0 6.74 6.74 0 00-2.358 1.7 7.43 7.43 0 00-1.463 2.557 9.695 9.695 0 00-.502 3.174 9.296 9.296 0 00.502 3.085 7.491 7.491 0 001.463 2.516 6.893 6.893 0 002.35 1.693 7.595 7.595 0 003.15.639 8.436 8.436 0 001.997-.23 6.223 6.223 0 001.68-.652l2.15 1.962 1.547-1.636-1.89-1.732a7.72 7.72 0 001.48-2.56 9.075 9.075 0 00.503-3.085zm-3.588 2.049a4.849 4.849 0 01-.674 1.446l-1.723-1.583-1.57 1.666 1.433 1.3a.576.576 0 01-.247.128 2.151 2.151 0 01-.33.058l-.38.022h-.387a3.852 3.852 0 01-1.913-.441 3.755 3.755 0 01-1.26-1.15 4.911 4.911 0 01-.715-1.631 7.814 7.814 0 01-.246-1.864c0-.655.075-1.307.224-1.944.14-.6.39-1.17.736-1.68.332-.484.77-.885 1.283-1.172a4.35 4.35 0 013.817 0c.51.287.948.688 1.278 1.173a5.02 5.02 0 01.718 1.67c.146.638.22 1.29.22 1.944a7.052 7.052 0 01-.264 2.058zm44.67-1.362a3.637 3.637 0 00-2.085-1.424 3.79 3.79 0 001.525-1.26c.367-.57.551-1.24.529-1.917a4.155 4.155 0 00-.348-1.79 2.89 2.89 0 00-.987-1.159 4.199 4.199 0 00-1.53-.63 9.362 9.362 0 00-1.983-.19H77.38v15.232h7.36a7.635 7.635 0 001.997-.255 5.288 5.288 0 001.715-.794 4.085 4.085 0 001.199-1.375 4.632 4.632 0 00-.247-4.438zm-8.678-5.77h3.124c.288 0 .576.023.86.067.258.04.507.127.732.26.213.132.39.317.51.538.138.273.203.576.19.881.009.283-.044.564-.154.824-.1.22-.251.414-.44.564a1.78 1.78 0 01-.649.322c-.266.07-.54.106-.815.106h-3.372l.014-3.561zm5.835 9.005a1.59 1.59 0 01-.538.608 2.202 2.202 0 01-.784.318c-.31.067-.626.1-.943.097h-3.57v-4.183h3.631c.328 0 .653.04.97.123.278.07.538.2.763.38.216.182.384.415.489.678.126.318.186.659.176 1a2.27 2.27 0 01-.194.98zM75.614 19.318H71.96l-3.085 4.866-2.98-4.866h-3.864l4.892 7.255-5.316 7.981h3.76l3.385-5.275 3.31 5.275h3.98l-5.298-7.964 4.87-7.272zM0 34.316h24.267V0H.027L0 34.316zM2.803 2.803H21.47v28.715H2.803V2.803z" fill="#0AA075"/><path d="M17.63 9.542a.307.307 0 00-.44-.123l-.706.392-.106-.084a2.747 2.747 0 00-.793-.44v-.794a.322.322 0 00-.317-.322h-1.279a.326.326 0 00-.326.318v.806c-.333.11-.643.282-.912.507l-.688-.427a.322.322 0 00-.238-.031l-.097.04-.1.1-.653 1.09a.33.33 0 00-.044.158v.088a.318.318 0 00.15.194l.687.406c-.03.145-.049.292-.053.44v.067a2.4 2.4 0 00.049.533l-.697.392a.312.312 0 00-.154.19v.066a.335.335 0 00.04.185l.626 1.12a.308.308 0 00.19.15.33.33 0 00.242-.027l.705-.393.106.084c.239.188.507.337.793.441v.802a.326.326 0 00.317.326h1.274a.322.322 0 00.326-.313v-.82c.333-.112.642-.286.912-.51l.692.41a.309.309 0 00.243.034l.097-.044.101-.101.652-1.102a.33.33 0 00.044-.159v-.088a.326.326 0 00-.15-.198l-.713-.366c.03-.145.048-.292.052-.44v-.08a2.68 2.68 0 00-.052-.529l.696-.388a.34.34 0 00.154-.194v-.066a.322.322 0 00-.04-.18l-.59-1.12zm-3.045 3.716a1.283 1.283 0 01-1.266-1.239v-.066a1.279 1.279 0 012.557-.035v.061a1.281 1.281 0 01-1.287 1.279h-.005zM11.878 23.57h-4.54a.696.696 0 00-.652.693v1.542a.71.71 0 00.705.71h4.434a.71.71 0 00.705-.71v-1.542a.697.697 0 00-.652-.692zm-1.463-9.528a.141.141 0 00-.19-.057.136.136 0 00-.075.137v4.015a1.212 1.212 0 01.305 1.89 1.19 1.19 0 11-1.39-1.886v-4.02a.15.15 0 00-.14-.15.15.15 0 00-.128.071l-3.085 4.752a.494.494 0 000 .515l1.265 3.209a.498.498 0 00.44.269h4.408a.502.502 0 00.44-.27l1.266-3.208a.494.494 0 000-.515l-3.116-4.752z" fill="#0AA075"/></g><defs><clipPath id="clip0_697_16727"><path fill="#fff" d="M0 0h90.101v36H0z"/></clipPath></defs></svg>
